public/logos/SBB(2).svg

<svg height="500" viewBox="0 0 500 312" width="500" xmlns="http://www.w3.org/2000/svg"><path d="m0 0h500v312h-500z" fill="#de0023"/><g fill="#fff"><path d="m62.3 430 9.1-9.2h5.8l-6.2 6.8 7.7-.2.2-6.6h4.8l.2 6.6 7.7.2-6.2-6.8h5.8l9.1 9.2-9.1 9.2h-5.8l6.2-6.8-7.7.2-.2 6.6h-4.8l-.2-6.6-7.7-.2 6.2 6.8h-5.8z"/><path d="m38 156 102-102h64l-69 75 86-2 2-73h54l2 73h84l2 2-69-75h64l102 102-102 103h-64l69-76-86 2-2 74h-54l-2-74-86-2 69 76h-64z"/></g></svg>

<?xml version="1.0" encoding="UTF-8"?>
<svg xmlns="http://www.w3.org/2000/svg" width="500" height="500" viewBox="0,0 500 312">
<title>SBB logo simplified</title>
<rect x="0" y="0" width="500" height="312" fill="#de0023" />
<path d="M 62.3,430 L 71.4,420.8 H 77.2 L 71,427.6 78.7,427.4 78.9,420.8 H 83.7 L 83.9,427.4 91.6,427.6 85.4,420.8 H 91.2 L 100.3,430 91.2,439.2 H 85.4 L 91.6,432.4 83.9,432.6 83.7,439.2 H 78.9 L 78.7,432.6 71,432.4 77.2,439.2 H 71.4 Z" fill="#fff" />
<path d="M 38,156 L 140,54 H 204 L 135,129 221,127 223,54 H 277 L 279,127 H 363 L 365,129 296,54 H 360 L 462,156 360,259 H 296 L 365,183 279,185 277,259 H 223 L 221,185 135,183 204,259 H 140 Z" fill="#fff" />
</svg>
